X:1
T:Sans dire adieu
T:Severin Cornet
T:Source : La fleur des chansons à 3---Louvain---P.Phalèse---1574. Editor : André Vierendeels (04/09/18) Notes : Original clefs : G2, C2, C3 Original note values have been halved Editorial accidentals above the staff 
T:Sans dire adieu
T:©
T:©
T:©
T:©
T:©
T:©
C:Severin Cornet
Z:©
%%score [ 1 2 3 ]
L:1/8
Q:1/4=96
M:2/2
K:C
V:1 treble nm="Soprano" snm="S"
V:2 treble nm="Alto" snm="A"
V:3 treble-8 nm="Tenor" snm="T"
V:1
 z4 A4 | A3 B cd c2- | c2 A2 e2 E2 | G3 F E2 E2 | AGFE F4 | z4 z2 A2 | ABcd c2 A2 | e4 z2 A2 | %8
w: Sans|di- * * * *|* re'a- dieu, sans|di- * * re|a- * * * dieu,|sans|di- * * * * re'a-|dieu, sans|
 A3 G FE F2 | E2 A3 GAB | c8 | z4 A4 | A3 B cA d2- | d2 ^c2 d3 c/B/ | A4 z2 d2- | d2 c2 B2 e2- | %16
w: di- * * * *|* re'a- * * *|dieu,|sans|di- * * * *|* re'a- dieu, _ _|_ O,|_ a- my qui|
 e2 c2 f4 | e2 e2 ^c2 A2 | A2 A2 ^c3 B/A/ | B4 A4- | A4 z2 A2 | d2 c2 f2 c2 | ABcA d2 d2 | %23
w: _ sans ces-|se, O, a- my|qui sans ces- * *|* se,|_ iours,|heu- res, nuitz mon-|stré _ _ _ _ m'a-|
 f2 e2 ^c3 d | e4 A4 | z2 A2 d2 c2 | f2 c2 ABcA | d2 d2 f2 e2- | e2 d3 ^c/B/ c2 | d4 z2 A2 | %30
w: vez a- dres- *|* se,|iours, heu- res,|nuitz mon- stré _ _ _|_ m'a- vez a-|* dres- * * *|se, rai-|
 B2 B2 cA d2- | d2 c4 B2- | BA A4 G2 | A4 z4 | z2 A2 B2 B2 | c2 d2 cBAG | F2 D2 _B2 B2 | A4 z2 A2 | %38
w: son me meut vous don-|* ner mes|_ _ _ es-|cris,|rai- son me|meut vous don- * * *|* ner mes es-|cris, au|
 G2 F2 E2 A2 | c2 A2 A2 d2- | dd G2 c4- | c2 B2 e2 e2- | ee c4 B2 | A4 B4 | z cAA BBcA | %45
w: de- par- tir, au|de- par- tir, par-|* don- nez à|_ mes cris, par|_ don- nez à|mes cris,|puis qu'il con vient que pour un|
 dd d2 ^c2 z c | d2 B2 cB A2- | A^G/^F/ G2 A4 | z2 A2 A3 G | FE F2 E2 A2- | AGAB c4- | c4 z4 | %52
w: temps vous lais- se, que|pour un temps vous lais-|* * * * se,|sans di- *|* * * re'a- dieu|_ _ _ _ _||
 A4 A3 B | cA d4 ^c2 | d8 |] %55
w: sans di- *|* * * re'a-|dieu.|
V:2
 A2 A3 GFE | F2 D2 A2 z E | F2 ED G3 F | E2 D3 ^C/B,/ C2 | D4 z2 D2 | D3 E FG F2- | F2 E2 AGFE/D/ | %7
w: Sans di- * * *|* re'a- dieu, sans|di- * * * *|* * * * re'a-|dieu, sans|di- * * * *|* re'a- dieu, _ _ _ _|
 ^C8 | z2 A,2 A,3 B, | CD C4 A,2 | E3 D/E/ F2 E2 | EC F2 E4 | D2 D2 EC F2 | E4 D4 | z4 G4 | %15
w: _|sans di- *|* * * re'a-|dieu, _ _ _ _|_ sans di- re'a-|dieu, sans di- * *|re'a- dieu,|O,|
 F2 E2 G3 F | ED E2 A,2 D2- | D^C/B,/CD EC F2 | E2 E2 A,2 A2- | A^G/^F/ G2 A4 | z2 A,2 D2 C2 | %21
w: a- my qui _|_ _ _ sans ces-||se, qui sans ces-|* * * * se,|iours, heu- res,|
 F3 E/D/ C2 E2 | F2 E2 F2 G2 | A3 G/F/ ED E2 | A,4 z2 A,2 | D2 C2 F3 E/D/ | C2 E2 F2 E2 | %27
w: nuitz _ _ _ mon-|stré m'a- vez a-|dres- * * * * *|se, iours,|heu- res, nuitz _ _|_ mon- stré m'a-|
 F2 G2 A3 G | F2 ED E4 | D2 D2 ^F2 F2 | G2 D2 A3 G | F2 E4 D2- | DCCB,/A,/ B,2 B,2 | A,4 z2 D2 | %34
w: vez a- dres- *||se, rai- son me|meut vous don- *|* ner mes|_ _ _ _ _ _ es-|cris, rai-|
 ^F2 F2 G2 D2 | AGFE F2 E2 | D/C/D/E/ F4 E2 | F3 E/D/ C4 | z2 A2 G2 F2 | E2 F4 F2 | D2 E2 A,2 A2- | %41
w: son me meut vous|don- * * * * ner|mes _ _ _ _ es-|cris, _ _ _|au de- par-|tir, par- don-|nez à mes cris,|
 A2 ^G^F G2 z A- | AA G2 ^F2 G2- | G2 ^F2 G2 z G | EE F2 D2 E^F | G^F G2 A2 z E | A2 D2 GG, C2- | %47
w: _ _ _ _ par-|* don- ner à mes|_ _ cris, puis|qu'il con- vient que pour un|temps vous lais- se, que|pour un temps vous lais-|
 CB,/A,/ B,2 D3 C/B,/ | A,4 z2 A,2 | A,3 B, CD C2- | C2 A,2 E3 D/E/ | F2 E2 EC F2 | E4 D2 D2 | %53
w: |se, sans|di- * * * *|* a- dieu, _ _|_ _ _ sans di-|re'a- dieu, sans|
 EC F2 E4 | ^F8 |] %55
w: di- * * re'a-|dieu.|
V:3
 z8 | z4 z2 A2 | A3 B cd c2- | c2 G2 A4 | z2 d2 dc_BA | _B2 G2 d4- | d2 cB A4 | z2 A2 A3 G | %8
w: |Sans|di- * * * *|* re'a- dieu,|sans di- * * *|* re'a- dieu,|_ _ _ _|sans di- *|
 FE F4 D2 | A3 G AB c2 | z2 A2 A3 B | cA d4 ^c2 | d2 z D A2 GF | G2 A2 D4 | z2 d2 c2 G2 | %15
w: * * * re'a-|dieu, _ _ _ _|sans di- *|* * * re'a-|dieu, sans di- * *|* re'a- dieu,|O, a- my|
 A2 A2 e4 | A2 z A F2 D2 | A4 A2 d2- | d^c/B/cd ec f2 | e4 z2 A2 | d2 c2 f2 F2 | DEFG A2 A2 | %22
w: qui sans ces-|se, O, a- my|qui sans ces-||se, iours,|heu- res, nuitz mon-|stré _ _ _ _ m'a-|
 d2 c2 _B4 | A8 | z2 A2 d2 c2 | f2 F2 DEFG | A2 A2 d2 c2 | _B4 A4- | A4 z2 A2 |"^#" ^F2 G2 d2 z D | %30
w: vez a- dres-|se,|iours, heu- res,|nuitz mon- stré _ _ _|_ m'a- vez a-|dres- se,|_ rai-|son me meut, rai-|
 G2 G2 F2 D2 | A3 B c2 G2 | A2 F2 E4 | z2 A2 ^F2 G2 | d2 z D G2 G2 | F2 D2 A2 A2 | _B3 A G2 G2 | %37
w: son me meut vous|don- * * ner|mes es- cris,|rai- son me|meut, rai- son me|meut vous don- ner|mes- * * es-|
 F8 | z2 F2 c2 d2 | A4 d3 d | G2 c4 A2 | e2 e3 e A2 | c2 c2 d4 | z2 d2 BB e2 | A2 d2 G2 cd | %45
w: cris,|au de- par-|tir, par- don-|nez à mes|cris, par- don- nez|à mes cris,|puis qu'il con- vient|que pour un temps vous|
 _B4 A2 z A | ^F2 G2 EE F2 | E4 z2 D2 | D3 E FG F2- | F2 D2 A3 G | AB c2 z2 A2 | A3 B cA d2- | %52
w: lais- se, que|pour un temps vous lais-|se, sans|di- * * * *|* re'a- dieu, _|_ _ _ sans|di- * * * *|
 d2 ^c2 d2 z D | A2 GF G2 A2 | d8 |] %55
w: * re'a- dieu, sans|di _ _ _ re'a-|dieu.|

